!!!Genre:	Freylekhs
!!!Mode:	Freygish
!!!Listening/dance:	listening
!!!One_Mode:	yes
**kern
*I"P1
*clefG2
*k[b-e-a-]
*G:frey
*M2/4
*>A
8g
=1
(8.bnL
(16gJk)
16ddLL)
16cc
16b
16a-JJ
=2
8gL
16ggL
16ggJJ
16ggLL
16gg
16gg
16ggJJ
=3
(16qqbn/LL
16qqcc/JJ
16bnLL)
16g
16b
16ddJJ
(16qqcc/LL
16qqdd/JJ
16ccLL)
16b
16a-
16gJJ
=4
4.f
8c
=5
(8qen/
8fL)
(8qe/
8fJ)
4f
=6
8a-
4a-
8cc
*>A1
=7
16bnLL
16cc
16dd
16ccJJ
8.bL
16a-Jk
=8
16a-LL
16bnJ
8gJ
8r
*>A2
=9:|!
16bnLL
16cc
16dd
16ccJJ
16ddLL
16cc
16b
16a-JJ
=10
8g
8r
=11||
*>B
8dd
=12!|:
16gLL
16a-
16bn
16ccJJ
16ddLL
16ee-
16ff
16ggJJ
=13
4ddt
8.ddL
(32ddLL
32ee-JJJ
=14
16ffLL)
16ee-
16dd
16ccJJ
16bnLL
16cc
16dd
16ggJJ
=15
2ddt
=16
(8qgg/
16ffLL)
16ee-
16dd
16ccJJ
16bnLL
16cc
16dd
16ee-JJ
=17
16.ffLL
32ee-k
16dd
16ccJJ
16.bnLL
32a-k
16g
16fJJ
=18
16r
16a-LL
16a-
16a-JJ
16ddLL
16cc
16bn
16a-JJ
*>B1
=19
4g
4gg
*>B2
=:|!
(16a-LL
16gJ)
8gJ
8r
=20||
*>C
8g
=21!|:
8gL
8ggJ
8gL
8ggJ
=22
16ffLL
16ee-
16dd
16ccJJ
8.bntL
16a-Jk
=23
8gL
8ggJ
8ggL
8ggJ
=24
16ffLL
16ee-
16dd
16ccJJ
4dd
=25
16gLL
16gg
16gg
16ggJJ
16gLL
16gg
16gg
16ggJJ
=26
16ffLL
16ee-
16dd
16ccJJ
16bnLL
16a-
16g
16fJJ
=27
16fLL
16a-
16g
16fJJ
(8qf/
16ddLL)
16cc
16bn
16a-JJ
*>C1
=28
4g
8r
8g
*>C2
=29:|!
4g
8r
==
*-
